file/cnn-en-espanol.svg

<svg clip-rule="evenodd" fill-rule="evenodd" stroke-linejoin="round" stroke-miterlimit="1.41421" viewBox="0 0 560 400" xmlns="http://www.w3.org/2000/svg"><path d="m164.53 181.01c18.26-2.12 36.66-1.48 55-1.58 10.04.05 20.09-.11 30.13.08-.06 15.45 0 30.9-.03 46.35-21.06.01-42.12.01-63.18 0-17.03-.01-34.18 2.11-50.36 7.61-25.14 8.27-47.53 24.65-62.88 46.219-20.62 28.641-29.33 65.242-25.13 100.171 3.54 29.959 16.6 59.14 38.27 80.37 19.05 19.149 44.59 31.089 71.06 35.649 11.9 2.21 24.02 2.76 36.1 2.721 32.02-.011 64.04-.011 96.06-.011 4.96-.04 10.1.38 14.85-1.4 9.27-3.149 16.22-12.289 16.42-22.12.01-74.699-.01-149.399.01-224.099 0-4.26 1.43-9.13 5.49-11.2 4.41-2.11 9.86.04 12.35 4.07 50.31 81.55 101.121 162.81 151.81 244.13 4.51 7.8 14.15 13.181 23.15 10.461 9.189-2.541 14.6-12.25 14.55-21.381.03-75 0-150 .02-224.99-.03-4.26.81-9.25 4.681-11.74 4.27-2.83 10.189-.8 12.91 3.24 50.349 81.57 101.149 162.871 151.859 244.21 3.21 5.4 8.5 9.711 14.72 11.021 6.47 1.51 13.561-1.07 17.87-6.06 4.11-4.49 5.801-10.721 5.82-16.7.02-98.86-.02-197.711.02-296.56 15.381-.07 30.75-.04 46.131-.02.039 98.54.01 197.08.02 295.619-.061 7.021.33 14.111-.91 21.07-2.29 16.261-10.43 32.05-23.83 41.87-14.42 10.87-33.64 14.06-51.15 10.58-21.989-4.239-41.18-18.9-52.619-37.939-26.24-43.461-52.54-86.891-78.68-130.41.009 28.93.009 57.85.009 86.779-.06 12 .61 24.211-2.43 35.95-3.31 13.92-11.239 26.93-22.95 35.33-14.26 10.53-33.1 13.671-50.31 10.301-22.24-4.17-41.63-19.021-53.14-38.281-26.16-43.399-52.5-86.699-78.49-130.199-.27 31.94 0 63.89-.14 95.83-.4 15.88-4.35 32.239-14.17 45.02-8.78 11.68-22.19 19.29-36.34 22.36-12.32 2.92-25.04 2.14-37.59 2.239-29.22-.039-58.45.071-87.68-.06-36.98-.55-74.45-9.13-106.17-28.649-24-14.62-44.28-35.25-58.569-59.45-34.03-57.16-34.84-132.63-1.37-190.23 17.17-29.96 43.85-54.24 75.16-68.76 20.018-9.391 41.698-15.001 63.648-17.411zm149.85-1.54c13.83-2.94 28.55-.96 41.29 5.12 12.6 5.94 23.25 15.45 31.7 26.43 6.48 8.22 11.27 17.57 16.61 26.53 22.14 38.14 44.39 76.22 66.27 114.511.22-28.991.02-57.991.09-86.98.271-12.4-1.061-25.05 2.2-37.18 4.39-18.03 16.58-34.15 33.18-42.62 14.11-7.47 31.091-9.04 46.42-4.69 14.83 4.12 27.83 13.4 37.921 24.87 9.449 10.38 15.779 22.99 22.89 34.95 21.659 37.25 43.53 74.37 65.2 111.609.149-57.51.02-115.029.069-172.54 15.47-.09 30.95-.06 46.42-.01-.01 97.18-.01 194.37 0 291.56 0 4.57.421 9.659-2.39 13.59-2.061 3.1-6.49 3.94-9.689 2.199-2.66-1.209-4.4-3.649-5.841-6.079-50.159-80.54-100.54-160.95-150.27-241.76-3.671-6.37-10.521-10.98-17.921-11.38-7.939-.57-15.76 4.27-19.079 11.43-2.71 5.24-2.761 11.29-2.671 17.05.021 73.31-.01 146.63.011 219.95.01 4.28-1.3 9.609-5.78 11.27-4.26 1.5-8.54-1.55-10.66-5.09-50.859-81.54-101.78-163.04-152.24-244.83-4.11-6.02-11.24-10.14-18.61-9.83-7.04.07-13.74 4.35-16.98 10.55-3.07 5.44-3.29 11.85-3.16 17.94-.01 73.021.06 146.05-.03 219.07-.25 6.54-6.34 12.04-12.82 12.01-33.68.069-67.35 0-101.03.03-13.75.14-27.59-.561-41.06-3.55-25.85-5.411-50.18-19-67.14-39.4-19.97-23.78-29.84-55.32-28.67-86.2.95-31.48 13.35-62.84 35.59-85.34 19.29-19.74 45.89-31.5 73.2-34.34 10.62-1.31 21.34-.93 32.02-.98 16.71-.01 33.43.02 50.14-.01.17 15.31.04 30.63.07 45.939-16.72.03-33.44 0-50.16.011-9.3.05-18.66-.33-27.87 1.2-16.63 2.51-32.59 10.2-44.34 22.339-14.59 14.741-22.689 35.461-22.72 56.141-.12 17.14 5.42 34.41 16.22 47.8 9.04 11.46 21.71 19.76 35.45 24.51 10.99 3.87 22.66 5.561 34.28 5.86 20.01.01 40.02-.01 60.02.021 4.72.21 9.31-2.72 11.17-7.04 1.51-3.15 1.13-6.73 1.17-10.11-.02-59.66 0-119.33-.01-179 .15-15.83 5.5-31.75 15.75-43.92 9.07-10.921 21.85-18.751 35.79-21.611zm450.61-172.12c5.779.01 11.57-.07 17.359.05-9.66 31.56-26.67 61.92-53.17 82.31-27.199 20.61-60.68 32.85-94.779 34.54-22.561 1.29-45.211-1.69-67.041-7.31-14.6-3.59-29.06-7.88-43.01-13.52-19.27-7.38-38.3-15.35-57.51-22.87-16.45-6.91-33.74-11.92-51.37-14.64-22.38-2.88-46.54-.21-65.82 12.28-14.22 9.12-22.9 24.27-30.4 38.94-5.98.04-11.96-.01-17.94.02 8.62-26.84 26.83-51.04 51.86-64.51 25.27-13.91 55.18-16.47 83.42-13.44 27.92 3.04 54.221 13.54 80.15 23.74 22.77 8.89 45.3 18.57 68.81 25.4 22.931 6.68 47.09 9.43 70.9 7.15 19.54-1.76 38.869-7.52 55.64-17.84 25.671-15.71 44.171-41.7 52.901-70.3zm-341.73-7.35h17.44c34.41 1.38 67.479 12.28 99.319 24.64 20.23 7.48 40.211 15.59 60.271 23.49 17.2 5.83 34.989 10.88 53.25 11.42 18.66.35 38.08-3.12 53.779-13.72 13.831-9.16 22.381-24 29.721-38.46 6.04-.03 12.08-.07 18.12.02-5.73 17.76-15.391 34.38-28.7 47.53-11.59 11.57-26.021 20.16-41.55 25.28-19.471 6.47-40.32 7.63-60.65 6-18.9-1.58-37.31-6.65-55.13-12.99-19.34-6.89-38.28-14.82-57.399-22.28-25.211-9.89-51.11-19.25-78.301-21.51-28.709-2.57-58.82.92-84.34 15.06-27.95 15.21-48.35 42.44-57.57 72.66-5.85-.01-11.7 0-17.55.01 9.46-30.94 25.92-60.72 51.54-81.13 27.8-21.78 62.52-34.28 97.75-36.02z" fill="#ee1b2e" fill-rule="nonzero" transform="matrix(.36368 0 0 .36368 137.54 100)"/></svg>

<?xml version="1.0" encoding="UTF-8" standalone="no"?>
<!DOCTYPE svg PUBLIC "-//W3C//DTD SVG 1.1//EN" "http://www.w3.org/Graphics/SVG/1.1/DTD/svg11.dtd">
<svg width="100%" height="100%" viewBox="0 0 560 400" version="1.1" xmlns="http://www.w3.org/2000/svg" xmlns:xlink="http://www.w3.org/1999/xlink" xml:space="preserve" xmlns:serif="http://www.serif.com/" style="fill-rule:evenodd;clip-rule:evenodd;stroke-linejoin:round;stroke-miterlimit:1.41421;">
    <g transform="matrix(0.36368,0,0,0.36368,137.54,100)">
        <path d="M164.53,181.01C182.79,178.89 201.19,179.53 219.53,179.43C229.57,179.48 239.62,179.32 249.66,179.51C249.6,194.96 249.66,210.41 249.63,225.86C228.57,225.87 207.51,225.87 186.45,225.86C169.42,225.85 152.27,227.97 136.09,233.47C110.95,241.74 88.56,258.12 73.21,279.689C52.59,308.33 43.88,344.931 48.08,379.86C51.62,409.819 64.68,439 86.35,460.23C105.4,479.379 130.94,491.319 157.41,495.879C169.31,498.089 181.43,498.639 193.51,498.6C225.53,498.589 257.55,498.589 289.57,498.589C294.53,498.549 299.67,498.969 304.42,497.189C313.69,494.04 320.64,484.9 320.84,475.069C320.85,400.37 320.83,325.67 320.85,250.97C320.85,246.71 322.28,241.84 326.34,239.77C330.75,237.66 336.2,239.81 338.69,243.84C389,325.39 439.811,406.65 490.5,487.97C495.01,495.77 504.65,501.151 513.65,498.431C522.839,495.89 528.25,486.181 528.2,477.05C528.23,402.05 528.2,327.05 528.22,252.06C528.19,247.8 529.03,242.81 532.901,240.32C537.171,237.49 543.09,239.52 545.811,243.56C596.16,325.13 646.96,406.431 697.67,487.77C700.88,493.17 706.17,497.481 712.39,498.791C718.86,500.301 725.951,497.721 730.26,492.731C734.37,488.241 736.061,482.01 736.08,476.031C736.1,377.171 736.06,278.32 736.1,179.471C751.481,179.401 766.85,179.431 782.231,179.451C782.27,277.991 782.241,376.531 782.251,475.07C782.19,482.091 782.581,489.181 781.341,496.14C779.051,512.401 770.911,528.19 757.511,538.01C743.091,548.88 723.871,552.07 706.361,548.59C684.372,544.351 665.181,529.69 653.742,510.651C627.502,467.19 601.202,423.76 575.062,380.241C575.071,409.171 575.071,438.091 575.071,467.02C575.011,479.02 575.681,491.231 572.641,502.97C569.331,516.89 561.402,529.9 549.691,538.3C535.431,548.83 516.591,551.971 499.381,548.601C477.141,544.431 457.751,529.58 446.241,510.32C420.081,466.921 393.741,423.621 367.751,380.121C367.481,412.061 367.751,444.011 367.611,475.951C367.211,491.831 363.261,508.19 353.441,520.971C344.661,532.651 331.251,540.261 317.101,543.331C304.781,546.251 292.061,545.471 279.511,545.57C250.291,545.531 221.061,545.641 191.831,545.51C154.851,544.96 117.381,536.38 85.661,516.861C61.661,502.241 41.381,481.611 27.092,457.411C-6.938,400.251 -7.748,324.781 25.722,267.181C42.892,237.221 69.572,212.941 100.882,198.421C120.9,189.03 142.58,183.42 164.53,181.01ZM314.38,179.47C328.21,176.53 342.93,178.51 355.67,184.59C368.27,190.53 378.92,200.04 387.37,211.02C393.85,219.24 398.64,228.59 403.98,237.55C426.12,275.69 448.37,313.77 470.25,352.061C470.47,323.07 470.27,294.07 470.34,265.081C470.611,252.681 469.279,240.031 472.54,227.901C476.93,209.871 489.12,193.751 505.72,185.281C519.83,177.811 536.811,176.241 552.14,180.591C566.97,184.711 579.97,193.991 590.061,205.461C599.51,215.841 605.84,228.451 612.951,240.411C634.61,277.661 656.481,314.781 678.151,352.02C678.3,294.51 678.171,236.991 678.22,179.48C693.69,179.39 709.17,179.42 724.64,179.47C724.63,276.65 724.63,373.84 724.64,471.03C724.64,475.6 725.061,480.689 722.25,484.62C720.189,487.72 715.76,488.56 712.561,486.819C709.901,485.61 708.161,483.17 706.72,480.74C656.561,400.2 606.18,319.79 556.45,238.98C552.779,232.61 545.929,228 538.529,227.6C530.59,227.03 522.769,231.87 519.45,239.03C516.74,244.27 516.689,250.32 516.779,256.08C516.8,329.39 516.769,402.71 516.79,476.03C516.8,480.31 515.49,485.639 511.01,487.3C506.75,488.8 502.47,485.75 500.35,482.21C449.491,400.67 398.57,319.17 348.11,237.38C344,231.36 336.87,227.24 329.5,227.55C322.46,227.62 315.76,231.9 312.52,238.1C309.45,243.54 309.23,249.95 309.36,256.04C309.35,329.061 309.42,402.09 309.33,475.11C309.08,481.65 302.99,487.15 296.51,487.12C262.83,487.189 229.16,487.12 195.48,487.15C181.73,487.29 167.89,486.589 154.42,483.6C128.57,478.189 104.24,464.6 87.28,444.2C67.31,420.42 57.44,388.88 58.61,358C59.56,326.52 71.96,295.16 94.2,272.66C113.49,252.92 140.09,241.16 167.4,238.32C178.02,237.01 188.74,237.39 199.42,237.34C216.13,237.33 232.85,237.36 249.56,237.33C249.73,252.64 249.6,267.96 249.63,283.269C232.91,283.299 216.19,283.269 199.47,283.28C190.17,283.33 180.81,282.95 171.6,284.48C154.97,286.99 139.01,294.68 127.26,306.819C112.67,321.56 104.571,342.28 104.54,362.96C104.42,380.1 109.96,397.37 120.76,410.76C129.8,422.22 142.47,430.52 156.21,435.27C167.2,439.14 178.87,440.831 190.49,441.13C210.5,441.14 230.51,441.12 250.51,441.151C255.23,441.361 259.82,438.431 261.68,434.111C263.19,430.961 262.81,427.381 262.85,424.001C262.83,364.341 262.85,304.671 262.84,245.001C262.99,229.171 268.34,213.251 278.59,201.081C287.66,190.16 300.44,182.33 314.38,179.47ZM764.99,7.35C770.769,7.36 776.56,7.28 782.349,7.4C772.689,38.96 755.679,69.32 729.179,89.71C701.98,110.32 668.499,122.56 634.4,124.25C611.839,125.54 589.189,122.56 567.359,116.94C552.759,113.35 538.299,109.06 524.349,103.42C505.079,96.04 486.049,88.07 466.839,80.55C450.389,73.64 433.099,68.63 415.469,65.91C393.089,63.03 368.929,65.7 349.649,78.19C335.429,87.31 326.749,102.46 319.249,117.13C313.269,117.17 307.289,117.12 301.309,117.15C309.929,90.31 328.139,66.11 353.169,52.64C378.439,38.73 408.349,36.17 436.589,39.2C464.509,42.24 490.81,52.74 516.739,62.94C539.509,71.83 562.039,81.51 585.549,88.34C608.48,95.02 632.639,97.77 656.449,95.49C675.989,93.73 695.318,87.97 712.089,77.65C737.76,61.94 756.26,35.95 764.99,7.35ZM423.26,0L440.7,0C475.11,1.38 508.179,12.28 540.019,24.64C560.249,32.12 580.23,40.23 600.29,48.13C617.49,53.96 635.279,59.01 653.54,59.55C672.2,59.9 691.62,56.43 707.319,45.83C721.15,36.67 729.7,21.83 737.04,7.37C743.08,7.34 749.12,7.3 755.16,7.39C749.43,25.15 739.769,41.77 726.46,54.92C714.87,66.49 700.439,75.08 684.91,80.2C665.439,86.67 644.59,87.83 624.26,86.2C605.36,84.62 586.95,79.55 569.13,73.21C549.79,66.32 530.85,58.39 511.731,50.93C486.52,41.04 460.621,31.68 433.43,29.42C404.721,26.85 374.61,30.34 349.09,44.48C321.14,59.69 300.74,86.92 291.52,117.14C285.67,117.13 279.82,117.14 273.97,117.15C283.43,86.21 299.89,56.43 325.51,36.02C353.31,14.24 388.03,1.74 423.26,0Z" style="fill:rgb(238,27,46);fill-rule:nonzero;"/>
    </g>
</svg>
